!!!COA:	Josquin des Prez
!!!CDT:	~1450-1521/08/27
!!!COA2: Senfl
!!!COA3: Jonckers
!!!OTL:	Ecce Dominus veniet
!!!AGN:	Motet
!!!SCT:	NJE 14.5
!!!SCA:	New Josquin Edition 14.5
!!!voices:	5
**kern	**kern	**kern	**kern	**kern
*staff5	*staff4	*staff3	*staff2	*staff1
*Ivox	*Ivox	*Ivox	*Ivox	*Ivox
*I"Bassus	*I"Tenor2	*I"Tenor1	*I"Altus	*I"Superius
*I'B	*I'T2	*I'T1	*I'A	*I'S
*clefF4	*clefGv2	*clefGv2	*clefGv2	*clefG2
*k[b-]	*k[b-]	*k[b-]	*k[b-]	*k[b-]
*M2/1	*M2/1	*M2/1	*M2/1	*M2/1
*met(C|)	*met(C|)	*met(C|)	*met(C|)	*met(C|)
=1-	=1-	=1-	=1-	=1-
0r	0r	1c	1r	0r
.	.	1A	1c	.
=2	=2	=2	=2	=2
0r	0r	1c	1A	0cc
.	.	2r	1c	.
.	.	[2F/	.	.
=3	=3	=3	=3	=3
0r	0r	2F/]	2r	1a
.	.	2F/	1c	.
.	.	2C/	.	1cc
.	.	2c\	2A/	.
=4	=4	=4	=4	=4
0r	0r	2.A/	2.c\	2r
.	.	.	.	1cc
.	.	4B-\	4d\	.
.	.	2c\	2e\	.
.	.	2F/	2f\	2cc\
=5	=5	=5	=5	=5
0r	0r	2.c\	1e	1g
.	.	4B-\	.	.
.	.	1A	2.c\	1cc
.	.	.	4d\	.
=6	=6	=6	=6	=6
0r	0r	2G/	2e\	2r
.	.	1F	2.A/	1a
.	.	.	4B-\	.
.	.	2E/	2c\	[2g/
=7	=7	=7	=7	=7
0r	0r	1D	1F	2g/]
.	.	.	.	1f
.	.	1C	1G	.
.	.	.	.	2e/
=8	=8	=8	=8	=8
1F	0r	2r	2r	1f
.	.	2c\	2.F/	.
1F	.	2A/	.	2r
.	.	.	4G/	.
.	.	[2c\	4A/	2f/
.	.	.	4B-\	.
=9	=9	=9	=9	=9
1F	0c	4c\]	2.c\	2f/
.	.	4B-\	.	.
.	.	2A/	.	2f/
.	.	.	4d\	.
2C/	.	2G/	2e\	2e/
[2F\	.	[2A/	[2f\	[2a/
=10	=10	=10	=10	=10
2F\]	0A	4A/]	2f\]	2a/]
.	.	4G/	.	.
2C/	.	2E/	1e	2g/
1D	.	1F	.	1f
.	.	.	2d\	.
=11	=11	=11	=11	=11
0C	[0c	2G/	0e	2e/
.	.	2.E/	.	2.g/
.	.	4F/	.	4f/
.	.	2G/	.	4e/
.	.	.	.	4d/
=12	=12	=12	=12	=12
1AA	0c_	0A	2r	2c/
.	.	.	2c\	1e
2AA/	.	.	2c\	.
2AA/	.	.	2c\	2e/
=13	=13	=13	=13	=13
0C	0c]	1E	1G	1e
.	.	2E/	1G	1e
.	.	2E/	.	.
=14	=14	=14	=14	=14
0GG	0r	0G	1.B-	0d
.	.	.	2B-\	.
=15	=15	=15	=15	=15
1.BB-	0r	0D	1F	1.d
.	.	.	2r	.
2FF/	.	.	2F/	2c/
=16	=16	=16	=16	=16
1FF	0c	1.F	1.f	2c/
.	.	.	.	2.cc\
1FF	.	.	.	.
.	.	.	.	4b-\
.	.	2C/	4e\	2a/
.	.	.	4d\	.
=17	=17	=17	=17	=17
2r	0c	1C	1e	1g
2C/	.	.	.	.
2AA/	.	2r	1r	1a
2FF/	.	2F/	.	.
=18	=18	=18	=18	=18
0GG	0G	1.D	1.d	1.b-
.	.	2E/	4c\	4a/
.	.	.	4B-\	4g/
=19	=19	=19	=19	=19
1FF	0c	1F	2A/	2.a/
.	.	.	2f\	.
.	.	.	.	4b-\
2r	.	2r	2e\	2cc\
2F\	.	2A/	[2c\	2a/
=20	=20	=20	=20	=20
2F\	0r	2A/	4c\]	1b-
.	.	.	4d\	.
2E\	.	2G/	2e\	.
2F\	.	1A	2c\	2.a/
2D\	.	.	2d\	.
.	.	.	.	4b-\
=21	=21	=21	=21	=21
2C/	0r	2r	2e\	2cc\
1F	.	2A/	2.c\	2f/
.	.	2B-\	.	2g/
.	.	.	4d\	.
2E\	.	2B-\	2e\	2g/
=22	=22	=22	=22	=22
2F\	0A	2.A/	[0c	2f/
2.FF/	.	.	.	2.a/
.	.	4G/	.	.
.	.	4F/	.	.
4GG/	.	4E/	.	4g/
4AA/	.	2F/	.	[2f/
4BB-/	.	.	.	.
=23	=23	=23	=23	=23
1C	0G	1C	0c]	2f/]
.	.	.	.	4e/
.	.	.	.	4d/
1C	.	2r	.	1e
.	.	2c\	.	.
=24	=24	=24	=24	=24
1FF	0F	2A/	2r	0f
.	.	2.c\	2.A/	.
2r	.	.	.	.
.	.	4B-\	4B-\	.
2FF/	.	4A/	2c\	.
.	.	4G/	.	.
=25	=25	=25	=25	=25
1BB-	0r	2F/	2d\	2r
.	.	2F/	2d\	2f/
2GG/	.	2G/	2B-\	1b-
2GG/	.	2G/	2B-\	.
=26	=26	=26	=26	=26
1C	0r	1E	1c	2g/
.	.	.	.	2g/
1FF	.	1F	2A/	1cc
.	.	.	2A/	.
=27	=27	=27	=27	=27
1BB-	0F	2D/	0B-	1f
.	.	1D	.	.
1BB-	.	.	.	2f/
.	.	2D/	.	[2f/
=28	=28	=28	=28	=28
2FF/	0A	1F	1c	2f/]
1F	.	.	.	2a/
.	.	1F	2r	2a/
4E\	.	.	[2c\	4g/
4D\	.	.	.	4f/
=29	=29	=29	=29	=29
1C	0c	2G/	2c\]	2e/
.	.	2.E/	4B-\	2.c/
.	.	.	4A/	.
2C/	.	.	4G/	.
.	.	4F/	4A/	4d/
4BB-/	.	4G/	4B-\	4e/
4AA/	.	4A/	4c\	4f/
=30	=30	=30	=30	=30
2GG/	0r	2B-\	2d\	2g/
2AA/	.	2A/	2c\	1f
2BB-/	.	2G/	2d\	.
2C/	.	2G/	2c\	2e/
=31	=31	=31	=31	=31
1FF	0c	0F	0A	0f
1FF	.	.	.	.
=32	=32	=32	=32	=32
2r	0c	2r	2r	2r
2C/	.	2E/	2G/	2g/
2FF/	.	2F/	2A/	2f/
[2C/	.	[2E/	2G/	2g/
=33	=33	=33	=33	=33
4C/]	0c	4E/]	1c	1e
4BB-/	.	4F/	.	.
4AA/	.	2G/	.	.
4GG/	.	.	.	.
2FF/	.	2A/	1r	2f/
2C/	.	2G/	.	4e/
.	.	.	.	4d/
=34	=34	=34	=34	=34
2AA/	[0c	1A	2r	2c/
2FF/	.	.	2.c\	1f
1C	.	1G	.	.
.	.	.	4B-\	.
.	.	.	4A/	2e/
.	.	.	4G/	.
=35	=35	=35	=35	=35
2FF/	0c]	1F	1A	1f
2F\	.	.	.	.
2E\	.	1r	2G/	2r
[2F\	.	.	[2A/	2c/
=36	=36	=36	=36	=36
4F\]	0r	2r	4A/]	2d/
4E\	.	.	4G/	.
4D\	.	2G/	1c	2e/
4C/	.	.	.	.
2D\	.	2G/	.	1f
2D\	.	2F/	2B-\	.
=37	=37	=37	=37	=37
1C	0r	2.G/	2.c\	2.e/
.	.	4F/	8B-/L	4f/
.	.	.	8A/J	.
1r	.	2E/	2G/	2g/
.	.	[2D/	2F/	2a/
=38	=38	=38	=38	=38
1BB-	0d	4D/]	1.B-	0b-
.	.	4E/	.	.
.	.	1F	.	.
1BB-	.	.	.	.
.	.	[2D/	2B-\	.
=39	=39	=39	=39	=39
1BB-	0d	4D/]	2B-\	1b-
.	.	4E/	.	.
.	.	4F/	2B-\	.
.	.	4D/	.	.
1BB-	.	4F/	1f	1b-
.	.	4D/	.	.
.	.	4F/	.	.
.	.	4G/	.	.
=40	=40	=40	=40	=40
1F	0c	0A	2r	1a
.	.	.	2f\	.
2r	.	.	2e\	2r
[2FF/	.	.	[2f\	[2a/
=41	=41	=41	=41	=41
4FF/]	0r	1A	2f\]	2a/]
4GG/	.	.	.	.
4AA/	.	.	4e\	4g/
4BB-/	.	.	4d\	4f/
2C/	.	2G/	2c\	2e/
[2D\	.	[2F/	[2B-\	[2f/
=42	=42	=42	=42	=42
4D\]	0r	4F/]	4B-\]	2f/]
4C/	.	4E/	4A/	.
2AA/	.	1E	1A	2c/
1BB-	.	.	.	1d
.	.	2D/	2G/	.
=43	=43	=43	=43	=43
2AA/	0c	2E/	1A	1c
1FF	.	1F	.	.
.	.	.	1A	1r
2FF/	.	2F/	.	.
=44	=44	=44	=44	=44
1AA	0c	1C	1A	1cc
2AA/	.	2C/	2A/	1cc
[2C/	.	[2E/	[2G/	.
=45	=45	=45	=45	=45
2C/]	0c	4E/]	2G/]	1.cc
.	.	4F/	.	.
2C/	.	4G/	2G/	.
.	.	4E/	.	.
1FF	.	2F/	2A/	.
.	.	2D/	2F/	2a/
=46	=46	=46	=46	=46
1AA	0c	0C	2E/	[0a
.	.	.	2e\	.
2r	.	.	2e\	.
2AA/	.	.	2e\	.
=47	=47	=47	=47	=47
2D\	0d	1F	1.f	1a]
2D\	.	.	.	.
1D	.	2r	.	2r
.	.	2F/	2d\	2a/
=48	=48	=48	=48	=48
1GG	0B-	2G/	1d	2b-\
.	.	2G/	.	2b-\
2r	.	1G	2r	1b-
2GG/	.	.	2d\	.
=49	=49	=49	=49	=49
2C/	0c	1E	2e\	1g
2C/	.	.	2e\	.
1C	.	2r	2.e\	2r
.	.	2E/	.	2g/
.	.	.	4c\	.
=50	=50	=50	=50	=50
1FF	0A	2F/	1c	2a/
.	.	2F/	.	2a/
2r	.	1F	2r	1a
2FF/	.	.	2c\	.
=51	=51	=51	=51	=51
2BB-/	0r	2D/	2d\	2f/
2BB-/	.	2D/	2d\	2f/
2GG/	.	2G/	2B-\	2b-\
2GG/	.	2G/	2B-\	2b-\
=52	=52	=52	=52	=52
2.C/	0r	2E/	2.c\	2g/
.	.	2E/	.	2g/
4C/	.	.	4c\	.
1FF	.	2.F/	1A	2.a/
.	.	4F/	.	4a/
=53	=53	=53	=53	=53
1BB-	0F	1D	1.d	1.f
1BB-	.	2r	.	.
.	.	2D/	4c\	4e/
.	.	.	4B-\	4d/
=54	=54	=54	=54	=54
1AA	0A	2E/	1c	2.c/
.	.	2E/	.	.
.	.	.	.	4d/
2AA/	.	2C/	1c	2e/
2FF/	.	2F/	.	[2f/
=55	=55	=55	=55	=55
1C	0G	1G	1.c	2f/]
.	.	.	.	4e/
.	.	.	.	4d/
1C	.	1C	.	1e
.	.	.	2c\	.
=56	=56	=56	=56	=56
2.FF/	[0F	1C	2.A/	1f
4GG/	.	.	4B-\	.
2AA/	.	1r	2c\	2f/
[2BB-/	.	.	[2d\	2f/
=57	=57	=57	=57	=57
4BB-/]	0F]	1r	4d\]	2f/
4AA/	.	.	4c\	.
4BB-/	.	.	4d\	2.f/
4C/	.	.	8c\L	.
.	.	.	8B-\J	.
4D\	.	2r	2A/	.
4C/	.	.	.	4e/
4D\	.	[2F/	2d\	4f/
4E\	.	.	.	4g/
=58	=58	=58	=58	=58
1F	0r	4F/]	1c	1a
.	.	4G/	.	.
.	.	4A/	.	.
.	.	4F/	.	.
2r	.	2G/	2B-\	2g/
[2FF/	.	[2A/	[2c\	[2f/
=59	=59	=59	=59	=59
4FF/]	0r	2A/]	2c\]	2f/]
4GG/	.	.	.	.
4AA/	.	4G/	4B-\	4e/
4BB-/	.	4F/	4A/	4d/
2C/	.	2E/	2G/	2c/
[2BB-/	.	[2D/	[2d\	[2f/
=60	=60	=60	=60	=60
2BB-/]	0r	2D/]	4d\]	2f/]
.	.	.	4c\	.
2C/	.	2E/	1c	1e
1D	.	1F	.	.
.	.	.	2B-\	2d/
=61	=61	=61	=61	=61
2C/	0G	1E	0c	1e
2.C/	.	.	.	.
.	.	2r	.	2r
4BB-/	.	.	.	.
4AA/	.	2C/	.	2e/
4GG/	.	.	.	.
=62	=62	=62	=62	=62
1FF	0A	0F	2r	2f/
.	.	.	1c	2.a/
1AA	.	.	.	.
.	.	.	.	4g/
.	.	.	2c\	[2f/
=63	=63	=63	=63	=63
1BB-	0G	1D	1d	2f/]
.	.	.	.	4e/
.	.	.	.	4d/
1C	.	2r	2c\	1e
.	.	2G/	[2c\	.
=64	=64	=64	=64	=64
1FF	[0F	2.A/	2c\]	1f
.	.	.	2.A/	.
.	.	4B-\	.	.
1FF	.	2c\	.	[1f
.	.	.	4B-\	.
.	.	2A/	2c\	.
=65	=65	=65	=65	=65
1.BB-	0F]	1.B-	1.d	1f]
.	.	.	.	1f
2FF/	.	2A/	2c\	.
=66	=66	=66	=66	=66
0FFl	0Fl	0Al	0cl	0fl
==	==	==	==	==
*-	*-	*-	*-	*-
!!!RDF**kern: l=long note in original notation
!!!RDF**kern: V=start of tuplet marker
!!!RDF**kern: Z=end of tuplet marker
!!!ENC:	Mauricio Rodriguez 2012/01/31
!!!END:	2012/01/31/
!!!EED:	Jesse Rodin
!!!EEV:	2012/03/19/
!!attribution-level@Jos: 5 (doubtful)
!!!ONB:	Translated from MusicXML and edited on 2012/03/19/ by Craig Sapp
!!muse2ps: C^@{COA}?\n@{SCT}^i2I150v90,90,90,90,130Q16
